rospo-newyear-dark/symbolic/status/process-working-symbolic.svg

<svg height="16" width="16" xmlns="http://www.w3.org/2000/svg"><path d="m8 1c-3.87 0-7 3.13-7 7s3.13 7 7 7 7-3.13 7-7-3.13-7-7-7zm0 6c1.66 0 3 1.34 3 3s-1.34 3-3 3-3-1.34-3-3 1.34-3 3-3z" fill="#d3dae3"/></svg>

<svg xmlns="http://www.w3.org/2000/svg" width="16" height="16" version="1.1">
 <path style="fill:#d3dae3" d="M 8,1 C 4.13,1 1,4.13 1,8 1,11.87 4.13,15 8,15 11.87,15 15,11.87 15,8 15,4.13 11.87,1 8,1 Z M 8,7 C 9.66,7 11,8.34 11,10 11,11.66 9.66,13 8,13 6.34,13 5,11.66 5,10 5,8.34 6.34,7 8,7 Z"/>
</svg>
